OFDR/img/documents/toxic-waste.svg

<svg width="73" height="66" viewBox="0 0 73 66" fill="none" xmlns="http://www.w3.org/2000/svg">
<g id="toxic-waste">
<path id="Path" d="M73 32.997C73 32.2494 72.6764 31.5531 72.1262 31.0617V19.5288C72.6647 19.1304 73 18.5033 73 17.8108C73 16.9237 72.4497 16.1447 71.626 15.8155C71.4578 15.7106 71.2573 15.6501 71.0429 15.6501H47.4579V4.62042C48.1663 4.16416 48.6152 3.38679 48.6152 2.52131C48.6152 1.47581 47.9603 0.558429 46.9828 0.181097C46.8096 0.0670331 46.6002 0 46.3746 0H14.1559C13.5577 0 13.0726 0.470853 13.0726 1.05145C13.0726 1.63204 13.5577 2.10289 14.1559 2.10289H46.0689C46.0856 2.10776 46.1023 2.11208 46.1196 2.11641C46.3134 2.16182 46.4487 2.32832 46.4487 2.52131C46.4487 2.7143 46.3134 2.88134 46.1196 2.92675C45.6339 3.04081 45.2914 3.46301 45.2914 3.94846V20.7786C45.2914 21.17 45.5147 21.529 45.8717 21.7101C46.2276 21.8912 46.4487 22.2447 46.4487 22.6329C46.4487 23.0205 46.2276 23.374 45.8717 23.5551C45.5147 23.7367 45.2914 24.0957 45.2914 24.4865V41.5129C45.2914 41.9038 45.5147 42.2627 45.8717 42.4444C46.2276 42.6255 46.4487 42.9785 46.4487 43.3666C46.4487 43.7548 46.2276 44.1083 45.8717 44.2894C45.5147 44.4705 45.2914 44.8294 45.2914 45.2208V62.051C45.2914 62.5364 45.6339 62.9586 46.1196 63.0727C46.3134 63.1187 46.4487 63.2852 46.4487 63.4781C46.4487 63.6711 46.3134 63.8376 46.1196 63.8831C46.1023 63.8874 46.0856 63.8917 46.0689 63.8966H2.5976C2.36034 63.8966 2.16652 63.7084 2.16652 63.4781C2.16652 63.2473 2.36034 63.0597 2.59927 63.0597C3.19743 63.0597 3.68253 62.5889 3.68253 62.0083V45.3657C3.68253 44.9057 3.37342 44.4986 2.92062 44.3618C2.4695 44.2256 2.16652 43.8261 2.16652 43.3671C2.16652 42.9082 2.4695 42.5082 2.92062 42.3725C3.37342 42.2357 3.68253 41.8286 3.68253 41.368V24.6319C3.68253 24.1714 3.37342 23.7643 2.92062 23.6275C2.4695 23.4918 2.16652 23.0918 2.16652 22.6329C2.16652 22.1739 2.4695 21.7739 2.92062 21.6382C3.37342 21.5014 3.68253 21.0943 3.68253 20.6338V3.99117C3.68253 3.41058 3.19631 2.93972 2.5976 2.93972C2.36034 2.93972 2.16652 2.75214 2.16652 2.52131C2.16652 2.29102 2.36034 2.10343 2.59927 2.10343H8.49064C9.0888 2.10343 9.5739 1.63258 9.5739 1.05145C9.5739 0.470853 9.0888 0 8.49064 0H2.5976C1.16513 0 0 1.13091 0 2.52131C0 3.53708 0.621551 4.41445 1.51601 4.81341V19.9677C0.584793 20.5316 0 21.5252 0 22.6329C0 23.7405 0.584793 24.7336 1.51601 25.2974V40.702C0.584793 41.2659 0 42.2595 0 43.3671C0 44.4748 0.584793 45.4679 1.51601 46.0317V61.1861C0.622108 61.585 0 62.4624 0 63.4787C0 64.8685 1.16513 66 2.59927 66H60.7422C61.3409 66 61.826 65.5291 61.826 64.9486C61.826 64.368 61.3409 63.8971 60.7422 63.8971H48.579C48.6024 63.7603 48.6158 63.6209 48.6158 63.4787C48.6158 62.6132 48.1669 61.8358 47.4579 61.3796V49.9175H51.8918C52.4899 49.9175 52.975 49.4466 52.975 48.866C52.975 48.2854 52.4899 47.8146 51.8918 47.8146H47.4579V45.776C48.1847 45.1857 48.6158 44.3105 48.6158 43.3671C48.6158 42.4238 48.1847 41.5486 47.4579 40.9588V33.836H66.3239C66.9221 33.836 67.4072 33.3652 67.4072 32.7846C67.4072 32.2034 66.9221 31.7326 66.3239 31.7326H47.4579V25.0417C48.1847 24.4514 48.6158 23.5762 48.6158 22.6329C48.6158 21.6895 48.1847 20.8143 47.4579 20.2245V17.7535H70.7767C70.7806 17.754 70.7845 17.7551 70.7878 17.7562C70.8006 17.7589 70.8335 17.7746 70.8335 17.8108C70.8335 17.8481 70.8006 17.8638 70.7884 17.867C70.3022 17.9811 69.9596 18.4038 69.9596 18.8893V31.5969C69.9596 31.9877 70.183 32.3467 70.5394 32.5283C70.6814 32.6008 70.8335 32.7619 70.8335 32.9976C70.8335 33.2327 70.6825 33.3933 70.5416 33.4646C70.1841 33.6457 69.9596 34.0052 69.9596 34.3966V47.2534C69.9596 47.6454 70.1835 48.0043 70.5416 48.1854C70.6285 48.2297 70.7026 48.2968 70.7533 48.3757C70.8067 48.4595 70.8335 48.5525 70.8335 48.6525C70.8335 48.8887 70.6814 49.0498 70.5394 49.1223C70.183 49.3039 69.9596 49.6623 69.9596 50.0532V62.7613C69.9596 63.2468 70.3022 63.6695 70.7889 63.7836C70.8051 63.7874 70.8162 63.7971 70.8196 63.802C70.8335 63.8187 70.8335 63.8328 70.8335 63.8382C70.8335 63.8755 70.8006 63.8912 70.7884 63.8944C70.7845 63.8949 70.7806 63.896 70.7767 63.8971H66.3239C65.7257 63.8971 65.2406 64.368 65.2406 64.9486C65.2406 65.5291 65.7257 66 66.3239 66H71.0429C71.2579 66 71.4578 65.9395 71.626 65.8346C72.4497 65.5054 73 64.7258 73 63.8382C73 63.3533 72.8285 62.8759 72.5143 62.4916C72.4007 62.3532 72.2698 62.2299 72.1262 62.1234V50.5883C72.677 50.0969 73 49.4001 73 48.6525C73 48.1643 72.8613 47.687 72.5957 47.2686C72.4648 47.0648 72.3066 46.8799 72.1262 46.7188V34.9329C72.6764 34.442 73 33.7457 73 32.997Z" fill="#86ADEF"/>
<path id="Path_2" d="M68 49C68 48.4478 67.5205 48 66.9294 48H57.0706C56.4794 48 56 48.4478 56 49C56 49.5522 56.4794 50 57.0706 50H66.9294C67.5205 50 68 49.5522 68 49Z" fill="#86ADEF"/>
<path id="Path_3" d="M42 22.1639C42 21.5732 41.512 21.0941 40.9103 21.0941H34.2923C31.6346 19.0913 28.3807 18 25.0003 18C21.5117 18 18.2937 19.1551 15.7189 21.0941H9.08965C8.48796 21.0941 8 21.5732 8 22.1639C8 22.7552 8.48796 23.2338 9.08965 23.2338H13.4141C11.1143 25.8603 9.72272 29.2734 9.72272 33C9.72272 36.7272 11.1149 40.1408 13.4147 42.7668H9.08965C8.48796 42.7668 8 43.2459 8 43.8366C8 44.4279 8.48796 44.9065 9.08965 44.9065H15.7195C18.2943 46.846 21.5123 48 25.0003 48C28.4664 48 31.7057 46.8614 34.3035 44.9065H40.9098C41.512 44.9065 41.9994 44.4279 41.9994 43.8366C41.9994 43.2459 41.512 42.7668 40.9098 42.7668H36.6072C38.1092 41.0457 39.2291 38.9725 39.8201 36.6568C39.9664 36.0831 39.6117 35.5022 39.028 35.3586C38.4448 35.2162 37.852 35.5633 37.7058 36.1364C37.0038 38.8883 35.4307 41.2393 33.3192 42.9406C33.2542 42.9824 33.1937 43.0303 33.1393 43.0842C30.8855 44.8361 28.0451 45.8603 24.9997 45.8603C17.7778 45.8603 11.902 40.0913 11.902 33C11.902 25.9092 17.7778 20.1403 24.9997 20.1403C28.2648 20.1403 31.3925 21.3267 33.8066 23.4807C36.2044 25.6205 37.7047 28.5341 38.0302 31.6843C38.0913 32.2717 38.624 32.7008 39.2246 32.6403C39.8235 32.5809 40.2594 32.0556 40.1988 31.4681C39.8823 28.4109 38.6168 25.5473 36.5921 23.2338H40.9098C41.512 23.2338 42 22.7552 42 22.1639Z" fill="#86ADEF"/>
<path id="Shape" fill-rule="evenodd" clip-rule="evenodd" d="M15.4261 31.1179C15.041 31.1179 14.6671 31.2718 14.4001 31.5406C14.132 31.8095 13.9864 32.178 14.001 32.5514C14.1281 35.9137 15.9646 38.9931 18.9134 40.7886C19.1406 40.9268 19.4054 40.9989 19.6713 40.9989C19.7855 40.9989 19.9002 40.9859 20.0116 40.9588C20.3861 40.8688 20.7119 40.632 20.9044 40.3085L23.6545 35.6975C24.2098 35.8221 24.7886 35.8221 25.3438 35.6975L28.0945 40.3095C28.287 40.6326 28.6128 40.8699 28.9873 40.9599C29.0992 40.9865 29.2134 41 29.3276 41C29.5935 41 29.8582 40.9279 30.0855 40.7897C33.0348 38.9942 34.8719 35.9143 34.999 32.5519C35.0136 32.178 34.868 31.8095 34.6005 31.5406C34.3329 31.2718 33.959 31.1179 33.5739 31.1179H28.0743C27.9075 30.5901 27.6181 30.105 27.2296 29.7018L29.9803 25.0892V25.0886C30.1728 24.7662 30.2215 24.3759 30.1152 24.0177C30.0088 23.6584 29.7513 23.3527 29.4099 23.1771C27.9081 22.407 26.2103 22 24.5003 22C22.7897 22 21.0914 22.4076 19.589 23.1782C19.2476 23.3533 18.9901 23.66 18.8837 24.0193C18.7774 24.377 18.8266 24.7678 19.0192 25.0903L21.7698 29.7034C21.3819 30.1066 21.0931 30.5911 20.9263 31.1185H15.4261V31.1179ZM19.4272 38.5688C17.6741 37.2648 16.5288 35.3436 16.2422 33.2261H20.9235C21.0897 33.7513 21.3819 34.2412 21.7687 34.6428L19.4272 38.5688ZM23.7194 33.4819C21.982 32.508 23.5218 29.905 25.2806 30.8621C27.0304 31.8143 25.4614 34.4607 23.7194 33.4819ZM29.5716 38.5699L27.2302 34.6439C27.6175 34.2423 27.9109 33.7518 28.076 33.2261H32.7578C32.4712 35.3441 31.3253 37.2659 29.5716 38.5699ZM27.6858 24.7196C26.6816 24.318 25.5946 24.1082 24.5003 24.1082C23.4054 24.1082 22.3172 24.3185 21.313 24.7201L23.6534 28.6455C24.2058 28.5214 24.7925 28.5214 25.3449 28.645L27.6858 24.7196Z" fill="#86ADEF"/>
</g>
</svg>

<svg width="73" height="66" fill="none" xmlns="http://www.w3.org/2000/svg"><g fill="#86ADEF"><path d="M73 32.997a2.59 2.59 0 00-.874-1.935V19.529A2.134 2.134 0 0073 17.81c0-.887-.55-1.666-1.374-1.995a1.1 1.1 0 00-.583-.166H47.458V4.62a2.495 2.495 0 001.157-2.099c0-1.045-.655-1.963-1.632-2.34A1.103 1.103 0 0046.375 0h-32.22c-.597 0-1.082.47-1.082 1.051s.485 1.052 1.083 1.052h31.913c.017.005.033.01.05.013a.42.42 0 01.33.405.42.42 0 01-.33.406 1.058 1.058 0 00-.828 1.021v16.83c0 .392.224.751.58.932.357.181.578.535.578.923 0 .387-.221.741-.577.922-.357.182-.58.54-.58.931v17.027c0 .39.223.75.58.931.356.181.577.534.577.923 0 .388-.221.741-.577.922-.357.181-.58.54-.58.932v16.83c0 .485.342.908.828 1.022a.42.42 0 01.329.405c0 .193-.136.36-.33.405a1.25 1.25 0 00-.05.014H2.598a.426.426 0 01-.431-.419c0-.23.193-.418.432-.418.598 0 1.084-.471 1.084-1.052V45.366c0-.46-.31-.867-.762-1.004a1.04 1.04 0 01-.754-.995c0-.459.303-.859.754-.994.452-.137.762-.544.762-1.005V24.632c0-.46-.31-.868-.762-1.005a1.04 1.04 0 01-.754-.994c0-.46.303-.86.754-.995.452-.137.762-.544.762-1.004V3.99c0-.58-.487-1.051-1.085-1.051a.426.426 0 01-.431-.419c0-.23.193-.418.432-.418h5.892c.598 0 1.083-.47 1.083-1.052C9.574.471 9.089 0 8.49 0H2.598C1.165 0 0 1.13 0 2.521c0 1.016.622 1.893 1.516 2.292v15.155A3.108 3.108 0 000 22.633c0 1.108.585 2.1 1.516 2.664v15.405A3.108 3.108 0 000 43.367c0 1.108.585 2.1 1.516 2.665v15.154C.622 61.585 0 62.462 0 63.48 0 64.869 1.165 66 2.6 66h58.142c.599 0 1.084-.47 1.084-1.051s-.485-1.052-1.084-1.052H48.58c.023-.137.037-.276.037-.418 0-.866-.45-1.643-1.158-2.1V49.918h4.434c.598 0 1.083-.47 1.083-1.051 0-.58-.485-1.051-1.083-1.051h-4.434v-2.039a3.098 3.098 0 001.158-2.409c0-.943-.431-1.818-1.158-2.408v-7.123h18.866c.598 0 1.083-.47 1.083-1.051 0-.582-.485-1.052-1.083-1.052H47.458v-6.691a3.098 3.098 0 001.158-2.41c0-.943-.431-1.818-1.158-2.408v-2.47h23.319a.06.06 0 01.01.002c.014.003.046.019.046.055 0 .037-.032.053-.045.056a1.059 1.059 0 00-.828 1.022v12.708c0 .39.223.75.58.931a.53.53 0 01.293.47.526.526 0 01-.291.467c-.358.18-.582.54-.582.932v12.856c0 .392.224.751.582.932a.55.55 0 01.211.19c.054.084.08.178.08.278a.53.53 0 01-.294.47c-.356.18-.58.54-.58.93v12.708c0 .486.343.908.83 1.023a.056.056 0 01.03.018c.014.017.014.03.014.036 0 .038-.032.053-.045.056-.004 0-.007.002-.011.003h-4.453c-.598 0-1.083.471-1.083 1.052 0 .58.485 1.051 1.083 1.051h4.719c.215 0 .415-.06.583-.165A2.154 2.154 0 0073 63.838a2.134 2.134 0 00-.874-1.715V50.588a2.575 2.575 0 000-3.87V34.934A2.59 2.59 0 0073 32.998z"/><path d="M68 49c0-.552-.48-1-1.07-1h-9.86c-.59 0-1.07.448-1.07 1s.48 1 1.07 1h9.86c.59 0 1.07-.448 1.07-1zM42 22.164c0-.59-.488-1.07-1.09-1.07h-6.618A15.42 15.42 0 0025 18a15.384 15.384 0 00-9.281 3.094h-6.63A1.08 1.08 0 008 22.164c0 .591.488 1.07 1.09 1.07h4.324c-2.3 2.626-3.691 6.04-3.691 9.766 0 3.727 1.392 7.14 3.692 9.767H9.09A1.08 1.08 0 008 43.837c0 .59.488 1.07 1.09 1.07h6.63A15.38 15.38 0 0025 48c3.466 0 6.706-1.139 9.303-3.093h6.607a1.08 1.08 0 001.09-1.07 1.08 1.08 0 00-1.09-1.07h-4.303a14.868 14.868 0 003.213-6.11 1.069 1.069 0 00-.792-1.298 1.093 1.093 0 00-1.322.777 12.783 12.783 0 01-4.387 6.805c-.065.041-.125.09-.18.143A13.239 13.239 0 0125 45.86c-7.221 0-13.097-5.769-13.097-12.86 0-7.09 5.876-12.86 13.098-12.86 3.265 0 6.392 1.187 8.807 3.34 2.397 2.14 3.898 5.054 4.223 8.204a1.084 1.084 0 001.195.956 1.075 1.075 0 00.974-1.172 14.808 14.808 0 00-3.607-8.234h4.318a1.08 1.08 0 001.09-1.07z"/><path fill-rule="evenodd" clip-rule="evenodd" d="M15.426 31.118c-.385 0-.759.154-1.026.423a1.363 1.363 0 00-.399 1.01c.127 3.363 1.964 6.442 4.912 8.238a1.464 1.464 0 001.099.17c.374-.09.7-.327.892-.65l2.75-4.611a3.864 3.864 0 001.69 0l2.75 4.611a1.431 1.431 0 001.234.691c.265 0 .53-.072.758-.21 2.949-1.796 4.786-4.876 4.913-8.238a1.365 1.365 0 00-.399-1.011 1.456 1.456 0 00-1.026-.423h-5.5a3.612 3.612 0 00-.844-1.416l2.75-4.613c.193-.323.241-.713.135-1.071a1.402 1.402 0 00-.705-.84A10.805 10.805 0 0024.5 22c-1.71 0-3.409.408-4.911 1.178a1.402 1.402 0 00-.705.841c-.107.358-.057.749.135 1.071l2.75 4.613a3.616 3.616 0 00-.843 1.416h-5.5v-.001zm4.001 7.45c-1.753-1.303-2.898-3.224-3.185-5.342h4.681a3.65 3.65 0 00.846 1.417l-2.342 3.926zm4.292-5.086c-1.737-.974-.197-3.577 1.562-2.62 1.75.952.18 3.599-1.562 2.62zm5.853 5.088l-2.342-3.926c.387-.402.68-.892.846-1.418h4.682c-.287 2.118-1.433 4.04-3.186 5.344zm-1.886-13.85a8.602 8.602 0 00-6.373 0l2.34 3.925a3.897 3.897 0 011.692 0l2.34-3.925z"/></g></svg>
